img/chain/advice/instagram.svg

<svg width="38" height="38" viewBox="0 0 38 38" fill="none" xmlns="http://www.w3.org/2000/svg">
<mask id="mask0_25_19" style="mask-type:alpha" maskUnits="userSpaceOnUse" x="0" y="0" width="38" height="38">
<rect width="38" height="38" rx="2" fill="#41ABE1"/>
</mask>
<g mask="url(#mask0_25_19)">
<path d="M19.0068 -1.72726C12.0359 -1.72726 4.75002 -1.78125 -1.53644 -1.78125C-1.67672 -0.811769 -1.71753 7.30295 -1.72582 12.255C-1.72901 13.9056 -1.72582 16.078 -1.72582 18.9919C-1.72582 27.6407 -1.71625 39.2362 -1.67481 39.7273C5.93752 39.7273 7.41579 39.7273 18.9625 39.7273C26.527 39.7273 33.25 39.7273 39.6875 39.7273C39.7155 39.3701 39.7273 24.6736 39.7273 18.9865C39.7273 11.9656 39.7813 2.96875 39.7813 -1.53719C38 -1.53719 30.7075 -1.71865 25.7531 -1.72726H19.0068Z" fill="url(#paint0_radial_25_19)"/>
<path d="M19.0068 -1.72726C12.0359 -1.72726 4.75002 -1.78125 -1.53644 -1.78125C-1.67672 -0.811769 -1.71753 7.30295 -1.72582 12.255C-1.72901 13.9056 -1.72582 16.078 -1.72582 18.9919C-1.72582 27.6407 -1.71625 39.2362 -1.67481 39.7273C5.93752 39.7273 7.41579 39.7273 18.9625 39.7273C26.527 39.7273 33.25 39.7273 39.6875 39.7273C39.7155 39.3701 39.7273 24.6736 39.7273 18.9865C39.7273 11.9656 39.7813 2.96875 39.7813 -1.53719C38 -1.53719 30.7075 -1.71865 25.7531 -1.72726H19.0068Z" fill="url(#paint1_radial_25_19)"/>
<path d="M19.0011 6.90918C15.7174 6.90918 15.3053 6.92354 14.0156 6.98223C12.7284 7.04117 11.8498 7.24495 11.081 7.54395C10.2857 7.85277 9.61115 8.26588 8.93909 8.93819C8.26653 9.61024 7.85342 10.2848 7.54358 11.0798C7.24383 11.8488 7.03979 12.7277 6.98186 14.0144C6.92417 15.304 6.90906 15.7164 6.90906 19.0001C6.90906 22.2838 6.92367 22.6946 6.98211 23.9843C7.0413 25.2715 7.24509 26.1501 7.54384 26.9189C7.85291 27.7141 8.26602 28.3887 8.93834 29.0607C9.61014 29.7333 10.2847 30.1474 11.0795 30.4562C11.8487 30.7552 12.7276 30.959 14.0146 31.0179C15.3043 31.0766 15.7161 31.091 18.9996 31.091C22.2836 31.091 22.6944 31.0766 23.9841 31.0179C25.2713 30.959 26.1509 30.7552 26.9202 30.4562C27.7152 30.1474 28.3888 29.7333 29.0606 29.0607C29.7332 28.3887 30.1463 27.7141 30.4561 26.9191C30.7533 26.1501 30.9574 25.2712 31.0178 23.9846C31.0758 22.6949 31.0909 22.2838 31.0909 19.0001C31.0909 15.7164 31.0758 15.3043 31.0178 14.0146C30.9574 12.7274 30.7533 11.8488 30.4561 11.08C30.1463 10.2848 29.7332 9.61024 29.0606 8.93819C28.388 8.26563 27.7155 7.85252 26.9195 7.54395C26.1487 7.24495 25.2695 7.04117 23.9824 6.98223C22.6926 6.92354 22.2821 6.90918 18.9973 6.90918H19.0011ZM17.9164 9.08806C18.2384 9.08756 18.5976 9.08806 19.0011 9.08806C22.2294 9.08806 22.612 9.09965 23.8869 9.15759C25.0658 9.21149 25.7056 9.40847 26.1318 9.57397C26.696 9.79311 27.0983 10.0551 27.5213 10.4783C27.9444 10.9014 28.2064 11.3045 28.4261 11.8687C28.5916 12.2944 28.7888 12.9342 28.8424 14.1131C28.9004 15.3877 28.913 15.7706 28.913 18.9973C28.913 22.2241 28.9004 22.607 28.8424 23.8815C28.7885 25.0604 28.5916 25.7002 28.4261 26.1259C28.2069 26.6902 27.9444 27.0919 27.5213 27.5149C27.0981 27.938 26.6963 28.2 26.1318 28.4192C25.7061 28.5854 25.0658 28.7819 23.8869 28.8358C22.6123 28.8937 22.2294 28.9063 19.0011 28.9063C15.7725 28.9063 15.3899 28.8937 14.1153 28.8358C12.9364 28.7814 12.2966 28.5844 11.8702 28.4189C11.3059 28.1998 10.9029 27.9378 10.4797 27.5146C10.0565 27.0914 9.79453 26.6894 9.57488 26.1249C9.40938 25.6992 9.21215 25.0594 9.15849 23.8805C9.10056 22.606 9.08897 22.2231 9.08897 18.9943C9.08897 15.7655 9.10056 15.3847 9.15849 14.1101C9.2124 12.9312 9.40938 12.2914 9.57488 11.8652C9.79403 11.301 10.0565 10.8979 10.4797 10.4747C10.9029 10.0516 11.3059 9.78959 11.8702 9.56994C12.2964 9.40369 12.9364 9.20721 14.1153 9.15305C15.2307 9.10267 15.663 9.08756 17.9164 9.08504V9.08806ZM25.4552 11.0957C24.6542 11.0957 24.0043 11.7448 24.0043 12.5461C24.0043 13.3471 24.6542 13.997 25.4552 13.997C26.2562 13.997 26.9061 13.3471 26.9061 12.5461C26.9061 11.745 26.2562 11.0952 25.4552 11.0952V11.0957ZM19.0011 12.7909C15.572 12.7909 12.7918 15.5711 12.7918 19.0001C12.7918 22.4291 15.572 25.208 19.0011 25.208C22.4302 25.208 25.2093 22.4291 25.2093 19.0001C25.2093 15.5711 22.4299 12.7909 19.0008 12.7909H19.0011ZM19.0011 14.9698C21.2269 14.9698 23.0314 16.7741 23.0314 19.0001C23.0314 21.2258 21.2269 23.0304 19.0011 23.0304C16.7751 23.0304 14.9708 21.2258 14.9708 19.0001C14.9708 16.7741 16.7751 14.9698 19.0011 14.9698V14.9698Z" fill="white"/>
</g>
<defs>
<radialGradient id="paint0_radial_25_19" cx="0" cy="0" r="1" gradientUnits="userSpaceOnUse" gradientTransform="translate(9.28418 42.9204) rotate(-90) scale(41.0845 38.2118)">
<stop stop-color="#FFDD55"/>
<stop offset="0.1" stop-color="#FFDD55"/>
<stop offset="0.5" stop-color="#FF543E"/>
<stop offset="1" stop-color="#C837AB"/>
</radialGradient>
<radialGradient id="paint1_radial_25_19" cx="0" cy="0" r="1" gradientUnits="userSpaceOnUse" gradientTransform="translate(-8.68013 1.20896) rotate(78.6807) scale(18.3889 75.7996)">
<stop stop-color="#3771C8"/>
<stop offset="0.128" stop-color="#3771C8"/>
<stop offset="1" stop-color="#6600FF" stop-opacity="0"/>
</radialGradient>
</defs>
</svg>

<svg width="38" height="38" fill="none" xmlns="http://www.w3.org/2000/svg"><mask id="a" style="mask-type:alpha" maskUnits="userSpaceOnUse" x="0" y="0" width="38" height="38"><rect width="38" height="38" rx="2" fill="#41ABE1"/></mask><g mask="url(#a)"><path d="M19.007-1.727c-6.971 0-14.257-.054-20.543-.054-.14.97-.182 9.084-.19 14.036-.003 1.65 0 3.823 0 6.737 0 8.649.01 20.244.051 20.735h41.363c.027-.357.04-15.053.04-20.74 0-7.021.053-16.018.053-20.524-1.781 0-9.073-.182-14.028-.19h-6.746z" fill="url(#b)"/><path d="M19.007-1.727c-6.971 0-14.257-.054-20.543-.054-.14.97-.182 9.084-.19 14.036-.003 1.65 0 3.823 0 6.737 0 8.649.01 20.244.051 20.735h41.363c.027-.357.04-15.053.04-20.74 0-7.021.053-16.018.053-20.524-1.781 0-9.073-.182-14.028-.19h-6.746z" fill="url(#c)"/><path d="M19.001 6.91c-3.284 0-3.696.014-4.985.072-1.288.06-2.166.263-2.935.562a5.92 5.92 0 0 0-2.142 1.394 5.935 5.935 0 0 0-1.395 2.142c-.3.769-.504 1.648-.562 2.934-.058 1.29-.073 1.702-.073 4.986s.015 3.695.073 4.984c.06 1.287.263 2.166.562 2.935.309.795.722 1.47 1.394 2.142a5.92 5.92 0 0 0 2.141 1.395c.77.3 1.649.503 2.936.562 1.29.059 1.701.073 4.985.073 3.284 0 3.694-.014 4.984-.073 1.287-.059 2.167-.263 2.936-.562a5.915 5.915 0 0 0 2.14-1.395 5.934 5.934 0 0 0 1.396-2.142c.297-.769.501-1.648.562-2.934.058-1.29.073-1.701.073-4.985 0-3.284-.015-3.696-.073-4.985-.06-1.288-.265-2.166-.562-2.935a5.933 5.933 0 0 0-1.395-2.142 5.91 5.91 0 0 0-2.142-1.394c-.77-.299-1.65-.503-2.937-.562-1.29-.058-1.7-.073-4.985-.073h.004zm-1.085 2.178h1.085c3.228 0 3.611.012 4.886.07 1.179.053 1.819.25 2.245.416.564.22.966.481 1.39.904.422.423.684.827.904 1.39.166.426.363 1.066.416 2.245.058 1.275.071 1.658.071 4.884 0 3.227-.013 3.61-.07 4.884-.055 1.18-.251 1.82-.417 2.245a3.74 3.74 0 0 1-.905 1.389 3.741 3.741 0 0 1-1.39.904c-.425.166-1.065.363-2.244.417-1.275.058-1.658.07-4.886.07-3.229 0-3.611-.012-4.886-.07-1.179-.055-1.818-.252-2.245-.417a3.744 3.744 0 0 1-1.39-.904 3.747 3.747 0 0 1-.905-1.39c-.166-.426-.363-1.066-.417-2.244-.057-1.275-.069-1.658-.069-4.887 0-3.229.012-3.61.07-4.884.053-1.179.25-1.819.416-2.245.219-.564.482-.967.905-1.39a3.753 3.753 0 0 1 1.39-.905c.426-.166 1.066-.363 2.245-.417 1.116-.05 1.548-.065 3.801-.068v.003zm7.54 2.008a1.45 1.45 0 1 0-.001 2.902 1.45 1.45 0 0 0 0-2.903zM19 12.79a6.21 6.21 0 1 0 .001 12.419 6.21 6.21 0 0 0-.001-12.42zm0 2.179a4.03 4.03 0 1 1 0 8.06 4.03 4.03 0 0 1 0-8.06z" fill="#fff"/></g><defs><radialGradient id="b" cx="0" cy="0" r="1" gradientUnits="userSpaceOnUse" gradientTransform="matrix(0 -41.0845 38.2118 0 9.284 42.92)"><stop stop-color="#FD5"/><stop offset=".1" stop-color="#FD5"/><stop offset=".5" stop-color="#FF543E"/><stop offset="1" stop-color="#C837AB"/></radialGradient><radialGradient id="c" cx="0" cy="0" r="1" gradientUnits="userSpaceOnUse" gradientTransform="rotate(78.681 -5.078 -4.69) scale(18.3889 75.7996)"><stop stop-color="#3771C8"/><stop offset=".128" stop-color="#3771C8"/><stop offset="1" stop-color="#60F" stop-opacity="0"/></radialGradient></defs></svg>
